X:1
T:Title
%%score { ( 1 3 ) | ( 2 4 ) }
L:1/8
M:4/4
K:Ab
V:1 treble nm="Grand Piano"
V:3 treble 
V:2 bass 
V:4 bass 
V:1
 z4 z2[Q:1/4=94] [CE]>[CA] | [DA]>[DG] [DG]>[DF] [DG]<[DG] [DF]>[DG] | F>E E>[EA] [Ec]2 [Ec]>[Fd] | %3
 c>B B>c B>A G>[EA] | [=DB]>[DB] [Ec]>[A=d] [Ge]2 E>A | A>G G>F G<G F>G | %6
 [CF]>[CE] [CE]>[CEA] [Ec]2 [Ec]>[Ed] | [CAe]>[EAc] [CA]>[DAf] [CAe]<[EAc] [EA]>[FAd] | %8
[M:3/4] [EAc]>[CEA] [B,EG]>[B,DG] [CA]2 |[M:1/4] c>d |[M:4/4] z c3- c2 z2 | z c3- c2 z2 | %12
 [CAe]>[DAf] [CAe]>[EAc] [CEA]>[Ec] [B,EB]>[B,=DA] | [B,EB]4 z2 [Ec]>[Ed] | z [Ec]3- [Ec]2 z2 | %15
 z [Ec]3- [Ec]2 z2 | [EAc]>[CAe] [CA]>[FAd] [EAc]>[CEA] [B,EG]>[DEG] |[M:3/4] [CEA]6 |] %18
V:2
 z4 z2 [A,,A,]>[A,,E,] | [B,,E,]>[B,,E,] [B,,E,]>[B,,E,] [B,,E,]<[B,,E,] [B,,E,]>[B,,E,] | %2
 [C,A,C]>[C,A,C] [C,A,C]>[C,A,] [A,,A,]2 [A,,A,]>[A,,A,] | %3
 [E,A,E]>[E,G,E] [E,G,E]>[E,A,E] [E,G,E]>[E,CE] [E,B,E]>[C,A,] | %4
 [B,,B,]>[B,,B,] [B,,B,]>[B,,B,] [E,B,]2 [E,G,D]>[E,A,C] | %5
 [E,G,D]>[E,B,D] [E,B,D]>[E,A,D] [E,B,D]<[E,B,D] [E,A,D]>[E,B,D] | %6
 [A,,A,]>[A,,A,] [A,,A,]>A,, [A,,A,]2 [A,,A,]>[A,,B,] | A,,>A,, A,,>A,, A,,<A,, C,>D, | %8
[M:3/4] E,>E, E,>E, [A,,A,]2 |[M:1/4][K:treble] [A,A]>[A,B,A] |[M:4/4] z A3- A2 z2 | %11
 z[K:bass] A3- A2 z2 | A,,>A,, A,,>A,, A,>A, G,>F, | E,2 E,>F, E,D, [C,A,]>[B,,B,] | %14
 [A,,C][A,,A,] A,,>A,, A,,A,, [A,,DA]>[A,,DA] | [A,,CA][A,,A,] A,,>A,, A,,A,, A,,>A,, | %16
 A,,>A,, A,,>A,, E,>E, E,>E, |[M:3/4] A,,6 |] %18
V:3
 x8 | x8 | x8 | x8 | x8 | x8 | x8 | x8 |[M:3/4] x6 |[M:1/4] x2 |[M:4/4] .e2 E>E EE f>f | %11
 .e2 E>E EE [EAc]>[FAd] | x8 | x8 | .[Ee]2 A,>A, A,A, f>f | .e2 A,>A, A,A, [CEA]>[DEB] | x8 | %17
[M:3/4] x6 |] %18
V:4
 x8 | x8 | x8 | x8 | x8 | x8 | x8 | x8 |[M:3/4] x6 |[M:1/4][K:treble] x2 | %10
[M:4/4] [A,CA][A,C] A,>A, A,A, [A,DA]>[A,DA] | [A,CA][K:bass][A,E] A,,>A,, A,,A,, A,,>A,, | x8 | %13
 x8 | x8 | x8 | x8 |[M:3/4] x6 |] %18

